src/actions/22/kstars_horizon.svg

<svg xmlns="http://www.w3.org/2000/svg" viewBox="0 0 22 22">
  <defs id="defs3051">
    <style type="text/css" id="current-color-scheme">
      .ColorScheme-Text {
        color:#2e3440;
      }
      </style>
  </defs>
 <path 
     style="fill:currentColor;fill-opacity:1;stroke:none" 
     d="M 11 3 A 8 8 0 0 0 3 11 A 8 8 0 0 0 11 19 A 8 8 0 0 0 19 11 A 8 8 0 0 0 11 3 z M 11 4 A 7 7 0 0 1 18 11 A 7 7 0 0 1 11 18 A 7 7 0 0 1 4 11 A 7 7 0 0 1 11 4 z "
     class="ColorScheme-Text"
     />
 <path 
     style="fill:currentColor;fill-opacity:0.5;stroke:none" 
     d="M 3.0351562 10.263672 C 3.0121295 10.508444 3.0003982 10.754148 3 11 C 3 15.418278 6.581722 19 11 19 C 15.418278 19 19 15.418278 19 11 C 18.9982 10.761936 18.985861 10.524069 18.962891 10.287109 C 18.568446 11.825601 15.121563 12.999925 11 13 C 6.8558354 12.999185 3.3993891 11.81172 3.0351562 10.263672 z "
     class="ColorScheme-Text"
     />
</svg>

<svg viewBox="0 0 22 22" xmlns="http://www.w3.org/2000/svg">
 <defs>
  <style type="text/css">.ColorScheme-Text {
        color:#2e3440;
      }</style>
 </defs>
 <path class="ColorScheme-Text" d="m11 3a8 8 0 0 0-8 8 8 8 0 0 0 8 8 8 8 0 0 0 8-8 8 8 0 0 0-8-8zm0 1a7 7 0 0 1 7 7 7 7 0 0 1-7 7 7 7 0 0 1-7-7 7 7 0 0 1 7-7z" fill="currentColor"/>
 <path class="ColorScheme-Text" d="m3.0352 10.264c-0.023027 0.24477-0.034758 0.49048-0.035156 0.73633 0 4.4183 3.5817 8 8 8s8-3.5817 8-8c-0.0018-0.23806-0.014139-0.47593-0.037109-0.71289-0.39444 1.5385-3.8413 2.7128-7.9629 2.7129-4.1442-8.15e-4 -7.6006-1.1883-7.9648-2.7363z" fill="currentColor" fill-opacity=".5"/>
</svg>
